X: 38866
T: Sunderland Hornpipe, The
R: three-two
M: 3/2
K: Dmajor
|DEFG ABcA d4|fgaf e2 dc B2 A2|BcdB A2 GF G2 B2|
egbg edcB AGFE|DFEG ABcA d4|fgaf e2 dc B2 A2|
BcdB A2 GF E2 c2|dBAG FdEd d4||
ABcd efga f4|bagf gefg c2 A2|DEFG AB=cd B4|
egba gfed c2 A2|afdB =ced=c B2 A2|bgec dfed c2 A2|
afge fdec dBAG|F2 d2 E2 c2 d4||

